img/service-4.svg

<svg width="60" height="60" viewBox="0 0 60 60" fill="none" xmlns="http://www.w3.org/2000/svg">
<circle cx="30" cy="30" r="30" fill="#CFDAFF"/>
<circle cx="30" cy="30" r="30" fill="#8799F9"/>
<path d="M32.0896 20H19.8604C19.3844 20 19 20.3845 19 20.8605C19 21.3365 19.3844 21.721 19.8604 21.721H32.0957C32.5717 21.721 32.9561 21.3365 32.9561 20.8605C32.9561 20.3845 32.5656 20 32.0896 20Z" fill="white"/>
<path d="M32.0896 24H19.8604C19.3844 24 19 24.3845 19 24.8605C19 25.3365 19.3844 25.721 19.8604 25.721H32.0957C32.5717 25.721 32.9561 25.3365 32.9561 24.8605C32.9561 24.3845 32.5656 24 32.0896 24Z" fill="white"/>
<path d="M32.0896 28H19.8604C19.3844 28 19 28.3845 19 28.8605C19 29.3365 19.3844 29.721 19.8604 29.721H32.0957C32.5717 29.721 32.9561 29.3365 32.9561 28.8605C32.9561 28.3845 32.5656 28 32.0896 28Z" fill="white"/>
<path fill-rule="evenodd" clip-rule="evenodd" d="M46.4386 32.0382C42.8138 30.6956 41.1783 28.7732 40.4949 27.8944V18.4899C40.4949 17.1168 39.3782 16 38.0051 16H18.4898C17.1167 16 16 17.1168 16 18.4899V38.0067C16 39.3799 17.1167 40.4967 18.4898 40.4967H32.1224C32.5496 44.3597 38.5421 46.691 39.25 46.9473C39.4514 47.0145 39.6467 47.0206 39.848 46.9473C40.5803 46.6788 47 44.1828 47 40.0573V32.8438C47 32.4837 46.7742 32.1663 46.4386 32.0382ZM45.2791 40.0573C45.2791 42.413 41.3919 44.4757 39.549 45.2202C37.7061 44.4757 33.8189 42.4252 33.8189 40.0573V33.4357C36.9372 32.1663 38.652 30.5125 39.549 29.4567C40.4461 30.5125 42.1547 32.1663 45.2791 33.4357V40.0573ZM18.4837 17.7271C18.0626 17.7271 17.7209 18.0689 17.7209 18.4899V22.5483V24.2754V29.1271V30.8481V32.1969L17.727 33.9178V38.0067C17.727 38.4278 18.0687 38.7696 18.4898 38.7696H32.098V32.8438C32.098 32.4837 32.3177 32.1663 32.6533 32.0382C36.51 30.6101 38.115 28.523 38.7191 27.7357C38.7282 27.7235 38.7359 27.7143 38.7435 27.7052C38.7511 27.696 38.7588 27.6869 38.7679 27.6747V24.2754L38.7618 22.5483V18.4899C38.7618 18.0689 38.4201 17.7271 37.999 17.7271H18.4837Z" fill="white"/>
</svg>

<svg width="60" height="60" fill="none" xmlns="http://www.w3.org/2000/svg"><circle cx="30" cy="30" r="30" fill="#CFDAFF"/><circle cx="30" cy="30" r="30" fill="#8799F9"/><path d="M32.09 20H19.86a.86.86 0 100 1.721h12.236A.86.86 0 1032.09 20zM32.09 24H19.86a.86.86 0 100 1.721h12.236A.86.86 0 1032.09 24zM32.09 28H19.86a.86.86 0 100 1.721h12.236A.86.86 0 1032.09 28z" fill="#fff"/><path fill-rule="evenodd" clip-rule="evenodd" d="M46.439 32.038c-3.625-1.342-5.26-3.265-5.944-4.144V18.49a2.492 2.492 0 00-2.49-2.49H18.49A2.492 2.492 0 0016 18.49v19.517a2.492 2.492 0 002.49 2.49h13.632c.428 3.863 6.42 6.194 7.128 6.45a.875.875 0 00.598 0C40.58 46.68 47 44.183 47 40.057v-7.213a.864.864 0 00-.561-.806zm-1.16 8.02c0 2.355-3.887 4.418-5.73 5.162-1.843-.744-5.73-2.795-5.73-5.163v-6.621c3.118-1.27 4.833-2.924 5.73-3.98.897 1.056 2.606 2.71 5.73 3.98v6.621zm-26.795-22.33a.763.763 0 00-.763.762v13.707l.006 1.72v4.09c0 .42.342.763.763.763h13.608v-5.926c0-.36.22-.678.555-.806 3.857-1.428 5.462-3.515 6.066-4.302l.024-.03.025-.031v-3.4l-.006-1.727V18.49a.763.763 0 00-.763-.763H18.484z" fill="#fff"/></svg>
